X:105
T:L'Autre Dzour Ieu M'en Onave
M:3/4
L:1/8
N:Assez anim
N:La Bourre 4th edition 1929, page 101
Z:Steve Mansfield www.lesession.co.uk June 2012
K:Gm
d d | c2 d2 f e | (dc/B/) A2 A B | 
c c (cd) (cB) | A A/ G/ A d d c/ B/ | 
A G G2 D2 - | D4 G G | A d (dc) (BA) | !fermata! G6 |]
<end>
<start>
